X: 24278
T: Lost And Found, The
R: jig
M: 6/8
K: Gmajor
|:~G3 dGG|edB dBA|~G3 dGd|edB AGE|
~G3 dGG|edB def|gfe dBA|Bee dBA:|
|:gfg bge|f2g afd|gfg bge|edB GBd|
gfg bge|f2g aga|bag agf|egg edB:|

